!!!OTL: ES LEUCHTET SCHON WIEDER
!!!ARE: Europa, Mitteleuropa, Deutschland, Pommern, Fiddichow, Brusenfelde
!!!SCT: E0538A
!!!YEM: Copyright 1995, estate of Helmut Schaffrath.
**kern
*ICvox
*Ivox
*M3/4
*k[]
*C:
{8g
8a
=1
4g
4e
8cc
8dd
=2
4ee
4g}
{8cc
8dd
=3
4.cc
8b
8cc
8a
=4
4a
4g}
{8cc
8dd
=5
4.cc
8b
8cc
8a
=6
8a
8g
4e}
{8cc
8g
=7
8g
8f
4d
8a
8g
=8
4f
4e}
{8cc
8dd
=9
4.cc
8b
8cc
8a
=10
8a
8g
4e}
{8cc
8g
=11
8g
8f
4d
8a
8g
=12
4f
4e}
==
!!!AGN: Liebes - Lied
!!!ONB: ESAC (Essen Associative Code) Database: ERK1
!!!AMT: simple triple
!!!AIN: vox
!!!EED: Helmut Schaffrath
!!!EEV: 1.0
*-
